picto/do-not-lean-out-of-the-window-framed.svg

<svg class="color-immutable" width="30" height="30" viewBox="0 0 30 30" fill="none" xmlns="http://www.w3.org/2000/svg"><path d="M29.9999 0H0V29.9999H29.9999V0Z" fill="#2D327D"/><path d="M25.4999 2.99999C26.3249 2.99999 26.9999 3.67499 26.9999 4.49999V25.4999C26.9999 26.3249 26.3249 26.9999 25.4999 26.9999H4.49999C3.67499 26.9999 2.99999 26.3249 2.99999 25.4999V4.49999C2.99999 3.67499 3.67499 2.99999 4.49999 2.99999H25.4999ZM25.4999 2.62499H4.49999C3.46612 2.62499 2.62499 3.46612 2.62499 4.49999V25.4999C2.62499 26.5338 3.46612 27.3749 4.49999 27.3749H25.4999C26.5338 27.3749 27.3749 26.5338 27.3749 25.4999V4.49999C27.3749 3.46612 26.5338 2.62499 25.4999 2.62499Z" fill="white"/><path d="M18.0348 9.70954C18.0348 10.4805 17.41 11.1054 16.6391 11.1054C15.8684 11.1054 15.2436 10.4805 15.2436 9.70954C15.2436 8.93892 15.8684 8.31417 16.6391 8.31417C17.4099 8.31417 18.0348 8.93892 18.0348 9.70954Z" fill="white"/><path d="M19.5675 15.15L18.5899 14.1722H17.0505L18.7667 15.8887C18.8629 16.0083 19.0086 16.0858 19.1738 16.0858C19.4638 16.0858 19.726 15.8237 19.726 15.5334C19.726 15.384 19.6632 15.2502 19.5629 15.1546L19.5675 15.15Z" fill="white"/><path d="M12.2918 17.945H11.6653V18.5798H12.2918V17.945Z" fill="white"/><path d="M24.0503 22.9732L19.6568 18.5797H23.1811C23.5952 18.5797 23.9321 18.2356 23.9321 17.8124V6.71218C23.9321 6.28896 23.5952 5.94471 23.1811 5.94471H7.02184L6.70834 5.63121L5.64769 6.69186L5.95429 6.99846V17.8125C5.95429 18.2357 6.29126 18.5798 6.70511 18.5798H9.78431V17.945H6.70511C6.64114 17.945 6.58931 17.8855 6.58931 17.8125V13.9878H10.1987L10.5768 13.6129H6.58931V7.63348L11.7249 12.7691C10.9432 13.5509 10.1514 14.3427 10.1124 14.3817C10.0344 14.4597 9.97488 14.5641 9.97488 14.6829C9.97488 14.802 9.97488 23.2984 9.97488 23.2984C9.97488 23.7129 10.3105 24.0484 10.7249 24.0484C11.1391 24.0484 11.4749 23.7129 11.4749 23.2984V16.3117L12.4823 17.3108V20.8316C12.4823 21.2462 12.8182 21.5816 13.2323 21.5816C13.6465 21.5816 13.9823 21.2462 13.9823 20.8316L13.9802 17.0441C13.9802 17.0441 14.0095 16.8003 13.8389 16.6297L12.6806 15.478L13.5422 14.5866L16.9007 17.945H14.1713C14.1713 18.1413 14.1713 18.3567 14.1716 18.5798H14.1911H17.5356L22.99 24.0341L24.0503 22.9732ZM15.5246 11.1064L15.5179 11.113C15.2639 10.8666 14.8775 10.7091 14.4449 10.7091C13.9539 10.7091 13.5238 10.9119 13.2773 11.2167C13.2773 11.2167 13.0806 11.4134 12.7856 11.7084L7.65694 6.57981H23.1813C23.2451 6.57981 23.2972 6.63928 23.2972 6.71218V13.6128H14.8204L14.7551 13.678L14.5848 13.5077L15.4702 12.5916L16.2963 13.4181H17.836L15.5246 11.1064ZM15.0649 13.9878H23.2972V17.8125C23.2972 17.8855 23.245 17.945 23.1812 17.945H19.0221L15.0649 13.9878Z" fill="white"/><path d="M6.70834 5.63129L5.64769 6.69186L22.9899 24.0341L24.0504 22.9732L6.70834 5.63129Z" fill="#EB0000"/></svg>

<svg class="color-immutable" width="30" height="30" viewBox="0 0 30 30" fill="none" xmlns="http://www.w3.org/2000/svg"><path d="M30 0H0v30h30V0Z" fill="#2D327D"/><path d="M25.5 3c.825 0 1.5.675 1.5 1.5v21c0 .825-.675 1.5-1.5 1.5h-21c-.825 0-1.5-.675-1.5-1.5v-21C3 3.675 3.675 3 4.5 3h21Zm0-.375h-21A1.877 1.877 0 0 0 2.625 4.5v21c0 1.034.841 1.875 1.875 1.875h21a1.877 1.877 0 0 0 1.875-1.875v-21A1.877 1.877 0 0 0 25.5 2.625Z" fill="#fff"/><path d="M18.035 9.71a1.396 1.396 0 1 1-2.792 0 1.396 1.396 0 0 1 2.792 0ZM19.567 15.15l-.977-.978h-1.54l1.717 1.717a.52.52 0 0 0 .407.197c.29 0 .552-.262.552-.553a.521.521 0 0 0-.163-.378l.005-.005ZM12.292 17.945h-.627v.635h.627v-.635Z" fill="#fff"/><path d="m24.05 22.973-4.393-4.393h3.524a.76.76 0 0 0 .751-.768v-11.1a.76.76 0 0 0-.75-.767H7.021l-.314-.314-1.06 1.06.306.307v10.814a.76.76 0 0 0 .751.768h3.08v-.635h-3.08c-.064 0-.116-.06-.116-.133v-3.824h3.61l.378-.375H6.589v-5.98l5.136 5.136-1.613 1.613a.432.432 0 0 0-.137.3v8.616a.75.75 0 1 0 1.5 0v-6.986l1.007.999v3.52a.75.75 0 1 0 1.5 0l-.002-3.787s.03-.244-.141-.414l-1.158-1.152.861-.891 3.359 3.358h-2.73v.635h3.365l5.454 5.454 1.06-1.06Zm-8.525-11.867-.007.007c-.254-.246-.64-.404-1.073-.404-.491 0-.921.203-1.168.508l-.491.491-5.13-5.128h15.525c.064 0 .116.06.116.132v6.9H14.82l-.065.066-.17-.17.885-.916.826.826h1.54l-2.311-2.312Zm-.46 2.882h8.232v3.825c0 .073-.052.132-.116.132h-4.159l-3.957-3.957Z" fill="#fff"/><path d="m6.708 5.631-1.06 1.06L22.99 24.035l1.06-1.06L6.708 5.63Z" fill="#EB0000"/></svg>
